X:1
T:Arrowtown, 10.7.10.7 D
T:Arrowtown, 10.7.10.7 D
T:Thomas Benjamin Mosley, 1909
T:Public Domain Courtesy of the Cyber Hymnal™
C:Thomas Benjamin Mosley, 1909
Z:Public Domain
Z:Courtesy of the Cyber Hymnal™
%%score ( 1 2 ) ( 3 4 )
L:1/8
Q:1/4=102
M:4/4
K:G
V:1 treble 
V:2 treble 
V:3 bass 
V:4 bass 
V:1
 [Gd]>[Ge] | [GB]2 [Gd]2 [DG]2 [DA]>[DB] | E2 [CG]2 [B,D]2 [DG]>[DA] | [GB]2 [DG]2 [DG]2 [GB]2 | %4
 [FA]6 [Gd]>[Ge] | [GB]2 [Gd]2 [DG]2 [DA]>[DB] | E2 [CG]2 [B,D]2 [DG]>[DA] | [GB]2 [Gd]2 G2 [FA]2 | %8
 [DG]6 [DG]>[DG] | [DF]2 [Fd]2 [Fd]2 [DE]>[DF] | [DG]2 [DB]2 [DB]2 [DG]>[DG] | %11
 [DF]2 [Fd]2 [Fd]2 [Fe]2 | d6 [Gd]>[Ge] | [GB]2 [Gd]2 [DG]2 [DA]>[DB] | E2 [CG]2 [B,D]2 [DG]>[DA] | %15
 [GB]2 [Gd]2 G2 [FA]2 | [DG]6 |] %17
V:2
 x2 | x8 | E2 x6 | x8 | x8 | x8 | E2 x6 | x4 G2 x2 | x8 | x8 | x8 | x8 | (G2 F2 G2) x2 | x8 | %14
 E2 x6 | x4 G2 x2 | x6 |] %17
V:3
 [G,B,]>[G,C] | [G,D]2 [G,B,]2 [G,B,]2 [G,C]>[G,D] | [C,C]2 [E,G,]2 G,2 [G,B,]>[G,C] | %3
 [G,D]2 [G,B,]2 [B,D]2 [G,D]2 | [D,D]6 [G,B,]>[G,C] | [G,D]2 [G,B,]2 [G,B,]2 [G,C]>[G,D] | %6
 [C,C]2 [E,G,]2 G,2 [G,B,]>[G,C] | [G,D]2 [G,B,]2 [D,B,]2 [D,D]2 | [G,,G,B,]6 [G,B,]>[G,B,] | %9
 [A,C]2 [D,C]2 [A,C]2 [D,C]>[D,C] | [G,B,]2 [D,B,]2 [G,B,]2 [D,B,]>[D,B,] | %11
 [A,C]2 [D,C]2 [A,C]2 [D,C]2 | ([G,B,]2 [A,C]2 [B,D]2) [G,B,]>[G,C] | %13
 [G,D]2 [G,B,]2 [G,B,]2 [G,C]>[G,D] | [C,C]2 [E,G,]2 G,2 [G,B,]>[G,C] | %15
 [G,D]2 [G,B,]2 [D,B,]2 [D,B,]2 | [G,,G,B,]6 |] %17
V:4
 x2 | x8 | x4 G,2 x2 | x8 | x8 | x8 | x4 G,2 x2 | x8 | x8 | x8 | x8 | x8 | x8 | x8 | x4 G,2 x2 | %15
 x8 | x6 |] %17

